X: 47
T:Margaret's Waltz
M:9/8
L:1/8
Q:100
R:Waltz
K:A
A2F|"A"{G}E3-E2F A2B|"(F#m)"{B}c6A2c|"D"B2A F3 A2B|"E"{A}B6A2F|
"A"{G}E3-E2F A2B|"(F#m"{B}c6e2A|"E(D)"c6      "(E)"~B3|"A"A6:|!
c2d|"A"e3f3g3|"D"a3~g3a3|"(Bm)"f2ed3f2e|"E"{g}e3-e2Ac2B|
"A(F#m)"A3-A2Bc2d|"(C#m)"e6c2A|"D"f2e~d3c2-{B}c|"E"B6c2d|
1 "A"e2Af2Ag2A|"D"a2Ag2Af2A|"A"e2Ad2Ac2A|"E"B6A2F|
"A"{G}E3-E2F A2B|"(F#m)"{B}c6e2A|"E(D)"c6      "(E)"~B3|"A"A6:|
2 "A"eAe fAf gAg|"D"aAa gAg fAf|"A"eAe dAd cAc|"E"B6A2F|
"A"{G}E3-E2F A2B|"(F#m)"{B}c6e2A|"E(D)"c6      "(E)"~B3|"A"A6|
